overrides/.icons/rsc/r-legacy.svg

<?xml version="1.0" encoding="UTF-8" standalone="no"?>
<svg
   viewBox="0 0 24 24"
   version="1.1"
   id="svg1"
   sodipodi:docname="reaction.svg"
   inkscape:version="1.3.2 (091e20e, 2023-11-25, custom)"
   xmlns:inkscape="http://www.inkscape.org/namespaces/inkscape"
   xmlns:sodipodi="http://sodipodi.sourceforge.net/DTD/sodipodi-0.dtd"
   xmlns="http://www.w3.org/2000/svg"
   xmlns:svg="http://www.w3.org/2000/svg">
  <defs
     id="defs1">
    <inkscape:path-effect
       effect="fillet_chamfer"
       id="path-effect17"
       is_visible="true"
       lpeversion="1"
       nodesatellites_param="F,0,1,1,0,0.85758563,0,1 @ F,0,1,1,0,0.85758563,0,1 @ F,0,1,1,0,0.85758563,0,1 @ F,0,1,1,0,0.85758563,0,1 @ F,0,0,1,0,0.85758563,0,1 @ F,0,1,1,0,0.85758563,0,1 @ F,0,1,1,0,0.85758563,0,1 @ F,0,1,1,0,0.85758563,0,1 @ F,0,1,1,0,0.85758563,0,1 @ F,0,0,1,0,0,0,1 @ F,0,1,1,0,0.85758563,0,1 @ F,0,0,1,0,0,0,1 @ F,0,1,1,0,0.85758563,0,1 @ F,0,1,1,0,0.85758563,0,1 @ F,0,1,1,0,0.85758563,0,1 @ F,0,1,1,0,0.85758563,0,1 @ F,0,1,1,0,0.85758563,0,1 @ F,0,1,1,0,0.85758563,0,1 @ F,0,1,1,0,0.85758563,0,1 @ F,0,1,1,0,0.85758563,0,1"
       radius="0"
       unit="px"
       method="auto"
       mode="F"
       chamfer_steps="1"
       flexible="false"
       use_knot_distance="true"
       apply_no_radius="true"
       apply_with_radius="true"
       only_selected="false"
       hide_knots="false" />
    <inkscape:path-effect
       effect="fillet_chamfer"
       id="path-effect16"
       is_visible="true"
       lpeversion="1"
       nodesatellites_param="F,0,1,1,0,1.4522319,0,1 @ F,0,1,1,0,1.4522319,0,1 @ F,0,0,1,0,1.4522319,0,1"
       radius="0"
       unit="px"
       method="auto"
       mode="F"
       chamfer_steps="1"
       flexible="false"
       use_knot_distance="true"
       apply_no_radius="true"
       apply_with_radius="true"
       only_selected="false"
       hide_knots="false" />
    <inkscape:path-effect
       effect="fillet_chamfer"
       id="path-effect1"
       is_visible="true"
       lpeversion="1"
       nodesatellites_param="F,0,0,1,0,0,0,1 @ F,0,0,1,0,0,0,1 @ F,0,0,1,0,0,0,1"
       radius="0"
       unit="px"
       method="auto"
       mode="F"
       chamfer_steps="1"
       flexible="false"
       use_knot_distance="true"
       apply_no_radius="true"
       apply_with_radius="true"
       only_selected="false"
       hide_knots="false" />
    <linearGradient
       id="swatch1"
       inkscape:swatch="solid">
      <stop
         style="stop-color:#ef5552;stop-opacity:1;"
         offset="0"
         id="stop1" />
    </linearGradient>
    <inkscape:path-effect
       effect="fillet_chamfer"
       id="path-effect15"
       is_visible="true"
       lpeversion="1"
       nodesatellites_param="F,0,0,1,0,0.48222331,0,1 @ F,0,1,1,0,0.48222331,0,1 @ F,0,1,1,0,0.48222331,0,1"
       radius="0"
       unit="px"
       method="auto"
       mode="F"
       chamfer_steps="1"
       flexible="false"
       use_knot_distance="true"
       apply_no_radius="true"
       apply_with_radius="true"
       only_selected="false"
       hide_knots="false" />
    <inkscape:path-effect
       effect="fillet_chamfer"
       id="path-effect14"
       is_visible="true"
       lpeversion="1"
       nodesatellites_param="F,0,0,1,0,0,0,1 @ F,0,0,1,0,0,0,1 @ F,0,0,1,0,0,0,1"
       radius="0"
       unit="px"
       method="auto"
       mode="F"
       chamfer_steps="1"
       flexible="false"
       use_knot_distance="true"
       apply_no_radius="true"
       apply_with_radius="true"
       only_selected="false"
       hide_knots="false" />
    <inkscape:path-effect
       effect="fillet_chamfer"
       id="path-effect13"
       is_visible="true"
       lpeversion="1"
       nodesatellites_param="F,0,1,1,0,1.0728753,0,1 @ F,0,1,1,0,1.0728753,0,1 @ F,0,1,1,0,1.0728753,0,1 @ F,0,1,1,0,1.0728753,0,1 @ F,0,0,1,0,1.0728753,0,1 @ F,0,1,1,0,1.0728753,0,1"
       radius="0"
       unit="px"
       method="auto"
       mode="F"
       chamfer_steps="1"
       flexible="false"
       use_knot_distance="true"
       apply_no_radius="true"
       apply_with_radius="true"
       only_selected="false"
       hide_knots="false" />
    <inkscape:path-effect
       effect="fillet_chamfer"
       id="path-effect12"
       is_visible="true"
       lpeversion="1"
       nodesatellites_param="F,0,0,1,0,0,0,1 @ F,0,0,1,0,0,0,1 @ F,0,0,1,0,0,0,1 @ F,0,0,1,0,0,0,1 @ F,0,0,1,0,0,0,1 @ F,0,0,1,0,0,0,1"
       radius="0"
       unit="px"
       method="auto"
       mode="F"
       chamfer_steps="1"
       flexible="false"
       use_knot_distance="true"
       apply_no_radius="true"
       apply_with_radius="true"
       only_selected="false"
       hide_knots="false" />
    <inkscape:path-effect
       effect="fillet_chamfer"
       id="path-effect11"
       is_visible="true"
       lpeversion="1"
       nodesatellites_param="F,0,0,1,0,0,0,1 @ F,0,0,1,0,0,0,1 @ F,0,0,1,0,0,0,1 @ F,0,0,1,0,0,0,1 @ F,0,0,1,0,0,0,1 @ F,0,0,1,0,0,0,1"
       radius="0"
       unit="px"
       method="auto"
       mode="F"
       chamfer_steps="1"
       flexible="false"
       use_knot_distance="true"
       apply_no_radius="true"
       apply_with_radius="true"
       only_selected="false"
       hide_knots="false" />
    <inkscape:path-effect
       effect="fillet_chamfer"
       id="path-effect10"
       is_visible="true"
       lpeversion="1"
       nodesatellites_param="F,0,0,1,0,0,0,1 @ F,0,0,1,0,0,0,1 @ F,0,0,1,0,0,0,1 @ F,0,0,1,0,0,0,1 @ F,0,0,1,0,0,0,1 @ F,0,0,1,0,0,0,1"
       radius="0"
       unit="px"
       method="auto"
       mode="F"
       chamfer_steps="1"
       flexible="false"
       use_knot_distance="true"
       apply_no_radius="true"
       apply_with_radius="true"
       only_selected="false"
       hide_knots="false" />
    <inkscape:path-effect
       effect="fillet_chamfer"
       id="path-effect9"
       is_visible="true"
       lpeversion="1"
       nodesatellites_param="F,0,0,1,0,0,0,1 @ F,0,0,1,0,0,0,1 @ F,0,0,1,0,0,0,1 @ F,0,0,1,0,0,0,1 @ F,0,0,1,0,0,0,1 @ F,0,0,1,0,0,0,1"
       radius="0"
       unit="px"
       method="auto"
       mode="F"
       chamfer_steps="1"
       flexible="false"
       use_knot_distance="true"
       apply_no_radius="true"
       apply_with_radius="true"
       only_selected="false"
       hide_knots="false" />
    <inkscape:path-effect
       effect="fillet_chamfer"
       id="path-effect8"
       is_visible="true"
       lpeversion="1"
       nodesatellites_param="F,0,0,1,0,0,0,1 @ F,0,0,1,0,0,0,1 @ F,0,0,1,0,0,0,1 @ F,0,0,1,0,0,0,1 @ F,0,0,1,0,0,0,1 @ F,0,0,1,0,0,0,1"
       radius="0"
       unit="px"
       method="auto"
       mode="F"
       chamfer_steps="1"
       flexible="false"
       use_knot_distance="true"
       apply_no_radius="true"
       apply_with_radius="true"
       only_selected="false"
       hide_knots="false" />
    <inkscape:path-effect
       effect="fillet_chamfer"
       id="path-effect7"
       is_visible="true"
       lpeversion="1"
       nodesatellites_param="F,0,0,1,0,0,0,1 @ F,0,0,1,0,0,0,1 @ F,0,0,1,0,0,0,1 @ F,0,0,1,0,0,0,1 @ F,0,0,1,0,0,0,1 @ F,0,0,1,0,0,0,1"
       radius="0"
       unit="px"
       method="auto"
       mode="F"
       chamfer_steps="1"
       flexible="false"
       use_knot_distance="true"
       apply_no_radius="true"
       apply_with_radius="true"
       only_selected="false"
       hide_knots="false" />
    <inkscape:path-effect
       effect="fillet_chamfer"
       id="path-effect6"
       is_visible="true"
       lpeversion="1"
       nodesatellites_param="F,0,0,1,0,0,0,1 @ F,0,0,1,0,0,0,1 @ F,0,0,1,0,0,0,1 @ F,0,0,1,0,0,0,1 @ F,0,0,1,0,0,0,1 @ F,0,0,1,0,0,0,1"
       radius="0"
       unit="px"
       method="auto"
       mode="F"
       chamfer_steps="1"
       flexible="false"
       use_knot_distance="true"
       apply_no_radius="true"
       apply_with_radius="true"
       only_selected="false"
       hide_knots="false" />
    <inkscape:path-effect
       effect="fillet_chamfer"
       id="path-effect5"
       is_visible="true"
       lpeversion="1"
       nodesatellites_param="F,0,0,1,0,0,0,1 @ F,0,0,1,0,0,0,1 @ F,0,0,1,0,0,0,1 @ F,0,0,1,0,0,0,1 @ F,0,0,1,0,0,0,1 @ F,0,0,1,0,0,0,1"
       radius="0"
       unit="px"
       method="auto"
       mode="F"
       chamfer_steps="1"
       flexible="false"
       use_knot_distance="true"
       apply_no_radius="true"
       apply_with_radius="true"
       only_selected="false"
       hide_knots="false" />
    <inkscape:path-effect
       effect="fillet_chamfer"
       id="path-effect4"
       is_visible="true"
       lpeversion="1"
       nodesatellites_param="F,0,0,1,0,0,0,1 @ F,0,0,1,0,0,0,1 @ F,0,0,1,0,0,0,1 @ F,0,0,1,0,0,0,1 @ F,0,0,1,0,1.1276705,0,1 @ F,0,0,1,0,1.2418038,0,1"
       radius="0"
       unit="px"
       method="auto"
       mode="F"
       chamfer_steps="1"
       flexible="false"
       use_knot_distance="true"
       apply_no_radius="true"
       apply_with_radius="true"
       only_selected="false"
       hide_knots="false" />
    <inkscape:path-effect
       effect="fillet_chamfer"
       id="path-effect3"
       is_visible="true"
       lpeversion="1"
       nodesatellites_param="F,0,0,1,0,0,0,1 @ F,0,0,1,0,0,0,1 @ F,0,0,1,0,0,0,1 @ F,0,0,1,0,0,0,1 @ F,0,0,1,0,0,0,1 @ F,0,0,1,0,0,0,1"
       radius="0"
       unit="px"
       method="auto"
       mode="F"
       chamfer_steps="1"
       flexible="false"
       use_knot_distance="true"
       apply_no_radius="true"
       apply_with_radius="true"
       only_selected="false"
       hide_knots="false" />
    <inkscape:path-effect
       effect="fillet_chamfer"
       id="path-effect2"
       is_visible="true"
       lpeversion="1"
       nodesatellites_param="F,0,0,1,0,0,0,1 @ F,0,0,1,0,0,0,1 @ F,0,0,1,0,0,0,1 @ F,0,0,1,0,0,0,1 @ F,0,0,1,0,0,0,1 @ F,0,0,1,0,0,0,1"
       radius="0"
       unit="px"
       method="auto"
       mode="F"
       chamfer_steps="1"
       flexible="false"
       use_knot_distance="true"
       apply_no_radius="true"
       apply_with_radius="true"
       only_selected="false"
       hide_knots="false" />
  </defs>
  <sodipodi:namedview
     id="namedview1"
     pagecolor="#ffffff"
     bordercolor="#666666"
     borderopacity="1.0"
     inkscape:showpageshadow="2"
     inkscape:pageopacity="0.0"
     inkscape:pagecheckerboard="0"
     inkscape:deskcolor="#d1d1d1"
     inkscape:zoom="11.1875"
     inkscape:cx="12.871508"
     inkscape:cy="12.379888"
     inkscape:window-width="1360"
     inkscape:window-height="715"
     inkscape:window-x="-8"
     inkscape:window-y="-8"
     inkscape:window-maximized="1"
     inkscape:current-layer="svg1" />
  <path
     id="rect9-85-8"
     style="fill-opacity:1;stroke:none;stroke-width:1.94437;stroke-dasharray:none;stroke-dashoffset:2.76;stroke-opacity:1;paint-order:stroke markers fill"
     d="M 11.622551,2.2707385 9.6557825,6.2832623 a 1.1992218,1.1992218 80.542876 0 0 0.2292352,1.3761809 l 0.2717983,0.2715484 a 0.8569281,0.8569281 89.995591 0 1 9.4e-5,1.212344 L 9.1430254,10.156598 A 0.85784851,0.85784851 0.00878397 0 1 7.9300303,10.156412 L 7.6590395,9.8854215 A 1.1998054,1.1998054 9.4439346 0 0 6.2825793,9.6564654 L 2.2700555,11.623234 a 0.42024652,0.42024652 89.994312 0 0 7.49e-5,0.754745 l 4.012374,1.965707 a 1.2000573,1.2000573 170.55038 0 0 1.3765351,-0.229109 l 0.2709908,-0.27099 a 0.85784858,0.85784858 179.99122 0 1 1.2129951,-1.86e-4 l 1.0138846,1.013262 a 0.85692837,0.85692837 90.004399 0 1 -9.4e-5,1.212345 l -0.8784821,0.877674 2.3442171,4.782579 a 0.42024651,0.42024651 179.99431 0 0 0.754745,-7.5e-5 l 2.343003,-4.782504 -0.877395,-0.877395 a 0.85758611,0.85758611 90.000003 0 1 0,-1.21281 l 1.012891,-1.01289 a 0.85758544,0.85758544 179.99999 0 1 1.212809,0 l 0.27099,0.27099 a 1.2001806,1.2001806 9.4524045 0 0 1.376572,0.229184 l 4.013667,-1.965857 a 0.42014316,0.42014316 90.005687 0 0 7.5e-5,-0.754595 L 17.716091,9.6563906 a 1.1999287,1.1999287 170.55328 0 0 -1.376497,0.2290309 l -0.27099,0.2709905 a 0.85758536,0.85758536 5.1485642e-6 0 1 -1.212809,0 L 13.842904,9.1435217 a 0.85758587,0.85758587 90.000006 0 1 10e-7,-1.2128094 L 14.113894,7.6597224 A 1.2000574,1.2000574 99.449619 0 0 14.343003,6.2831873 L 12.377296,2.2708134 a 0.42024652,0.42024652 0.00568735 0 0 -0.754745,-7.49e-5 z"
     inkscape:path-effect="#path-effect17"
     inkscape:original-d="m 12,1.5006829 -2.7216661,5.552635 1.4851661,1.483799 -2.2270651,2.2257001 -1.4838,-1.4838002 -5.552635,2.7216662 5.552635,2.720299 1.4838,-1.4838 2.2270651,2.2257 -1.4851661,1.4838 L 12,22.499317 l 2.720299,-5.552635 -1.483799,-1.4838 2.225699,-2.2257 1.4838,1.4838 L 22.5,12.000683 16.945999,9.2790168 15.462199,10.762817 13.2365,8.5371169 14.720299,7.0533178 Z"
     transform="matrix(1.0285795,0,0,1.0286471,-0.34292418,-0.34376515)" />
</svg>

<?xml version="1.0" encoding="UTF-8"?>
<svg id="svg1" version="1.1" viewBox="0 0 24 24" xmlns="http://www.w3.org/2000/svg">
 <path id="rect9-85-8" transform="matrix(1.0286 0 0 1.0286 -.34292 -.34377)" d="m11.623 2.2707-1.9668 4.0125a1.1992 1.1992 80.543 0 0 0.22924 1.3762l0.2718 0.27155a0.85693 0.85693 89.996 0 1 9.4e-5 1.2123l-1.0139 1.0133a0.85785 0.85785 0.008784 0 1-1.213-1.86e-4l-0.27099-0.27099a1.1998 1.1998 9.4439 0 0-1.3765-0.22896l-4.0125 1.9668a0.42025 0.42025 89.994 0 0 7.49e-5 0.75474l4.0124 1.9657a1.2001 1.2001 170.55 0 0 1.3765-0.22911l0.27099-0.27099a0.85785 0.85785 179.99 0 1 1.213-1.86e-4l1.0139 1.0133a0.85693 0.85693 90.004 0 1-9.4e-5 1.2123l-0.87848 0.87767 2.3442 4.7826a0.42025 0.42025 179.99 0 0 0.75474-7.5e-5l2.343-4.7825-0.8774-0.8774a0.85759 0.85759 90 0 1 0-1.2128l1.0129-1.0129a0.85759 0.85759 180 0 1 1.2128 0l0.27099 0.27099a1.2002 1.2002 9.4524 0 0 1.3766 0.22918l4.0137-1.9659a0.42014 0.42014 90.006 0 0 7.5e-5 -0.7546l-4.0138-1.9669a1.1999 1.1999 170.55 0 0-1.3765 0.22903l-0.27099 0.27099a0.85759 0.85759 5.1486e-6 0 1-1.2128 0l-1.0129-1.0129a0.85759 0.85759 90 0 1 1e-6 -1.2128l0.27099-0.27099a1.2001 1.2001 99.45 0 0 0.22911-1.3765l-1.9657-4.0124a0.42025 0.42025 0.0056874 0 0-0.75474-7.49e-5z" style="paint-order:stroke markers fill"/>
</svg>
